X:1
T:Klaviersonate KV 457
T:Klaviersonate KV 457 - 1 expozice
T:1. Molto Allegro
T:Wolfgang Amadeus Mozart
C:Wolfgang Amadeus Mozart
%%score { ( 1 3 ) | ( 2 4 ) }
L:1/8
Q:1/2=84
M:4/4
K:Eb
V:1 treble nm="Piano" snm="Pno."
V:3 treble 
V:2 bass 
V:4 bass 
V:1
!f!"^Molto Allegro" !^!C4 .E2 .G2 | .c2 .e2 z z/!p! .e/ (3(e/f/e/d/e/ | !tenuto!g2 .c2) .c2 .c2 | %3
 (!tenuto!a2 .=B2) .=B2 z2 |!f! !^!G,4 .=B,2 .D2 | .G2 .=B2 z z/!p! .d/ (3(d/e/d/c/d/ | %6
 (!tenuto!f2) .=B2) .=B2 .=B2 | (!tenuto!g2 .c2) .c2 z2 |!f! G6!p! [Ge-]2 | %9
 [^Fe]2 [=Fd-]2!<(! [=Ed]2 [_Ec-]2!<)! |!f! ([Dc]2 .=B2) z2!p! [e-g]2 | %11
 [e^f]2!<(! [d-=f]2 [d=e]2 [c-_e]2!<)! |!f! ([cd]2 .=B2) z2 !>![Bda]2- | %13
 ([Bda]2 .[ceg]2) z3/2 .G/ d>.f | (3(!>!e/4f/4e/4d/e/f/ .g2) z2 !>![=Bda]2- | %15
 ([Bda]2 .[ceg]2) z3/2 .f/ =b>(f' | e'gc'.e) z!p! (fa.d) | z (eg.c) z (df.=B) |!f! !^!c4 .e2 .g2 | %19
 .c'2 .e'2 z z/ .e/ (3(e/f/e/d/e/ | (3!>!_abc' (3bag (3fga (3gfe | %21
 (3def (3edc!>(! (3BcB (3ABA!>)! |!mp! (G3) A/4G/4F/4G/4 A2) D2 | .E.G (B3 =A_A^F | %24
 (G3) A/4G/4F/4G/4 A2) D2 | .E(edc B=A_A^F) | (G2 .B2) z"_cresc." (.B.B.B) | %27
 (!>!fe) e2 z (.e.e.e) |!f! (ef/.g/ .f).e .d.c!>(!.B.=A!>)! | (c2 B2)!p! z2 .e.e | b2 z2 z2 .e.e | %31
 b2 z2 z2 .e.e |!<(! b2 .e.e b2 .e.e!<)! |!mf! .b2 .b2 .b2 .b2 | %34
!>(! (!tenuto!b=a_af !tenuto!b=a_af)!>)! |!p! (!tenuto!e3 f/e/ d2) e2 | (!tenuto!=e4 .f2) z2 | %37
[K:bass]!mf! (!tenuto!A,3 G,/A,/ B,A,G,F,) |!>(! (!tenuto!E,4 .D,2) z2!>)! | %39
[K:treble] (!tenuto!f3 g/f/ e2) f2 | (!tenuto!^f4 .g2) z2 | %41
[K:bass] (!tenuto!B,3 =A,/B,/!>(! CB,_A,G,)!>)! |!>(! (!tenuto!F,4 .E,2) z z!>)! | %43
[K:treble]!mf!!<(! !^![Bb]4 !^![=B=b]4!<)! |!f! (!>![cc']2 [_d_d']2) z4 | z!p! (c'ba gfga) | %46
 (e6 gf | e2) z (e d_dc_c |!mf!!<(! !^!B4) !^![=B,=B]4!<)! |!f! (!>![Cc]2 [_D_d]2) z4 | %50
!f! (3cfG (3Ac=E (3FA=B, (3CFG, |[K:bass] (3A,C=E, (3F,A,=B,, (3C,F,G,, (3A,,C,=E,, | %52
 !>!F,,3 z z4 | z8 |[K:treble] AFcA fcaf | !>!c'2 z2 !>!e'2 z2 | z!p! (Bb=a _ag_gf) | %57
 (!tenuto!f.e) (e4 gf | e2) z (e !>!=e.f) z (f | !>!^f.g) z (g"_cresc." !>!b.a) z (a | %60
 !>!=a.b) z (b !>!=b.c') z (e' |!f! !>!e'e!>(! e4 gf!>)! | %62
!mf! .e).e (3(e/f/e/d/e/ .f).f (3(f/g/f/e/f/ | %63
!f! .g)"_cresc.".g (3(g/a/g/f/g/ .a).a (3(a/b/a/g/a/ |!ff! (3(!>!b)c'd' (3e'd'c' (3bag (3fed) | %65
 .c2 .[eac']2 .[egb]2 .[FAd]2 | .[Ge]2 (3(!>!bag (3fed (3e_d=B | .c2) (3(!>!c'ba (3gfe (3=daf | %68
 .e2)!mf! (3(!>!BAG (3FED (3E_D_C | .C2) (3(!>!cBA (3GFE (3DAF |!f! !^!E4) .G2 .B2 | %71
 .e2 .g2 z3/2 .g/ (3(g/a/g/f/g/ | b2"_dim." .e2) .e2 .e2 |!p! (!tenuto!a2 .=B2) .B2 z2 |] %74
V:2
 !^![C,,C,]4 .[E,,E,]2 .[G,,G,]2 | .[C,C]2 .[E,E]2 z4 |[K:treble] z2 .[EG]2 .[EG]2 .[EG]2 | %3
 z2 .[DFA]2 .[DFA]2 z2 |[K:bass] !^![G,,,G,,]4 .[=B,,,=B,,]2 .[D,,D,]2 | .[G,,G,]2 .[=B,,=B,]2 z4 | %6
[K:treble] z2 .[DFA]2 .[DFA]2 .[DFA]2 | z2 .[EG]2 .[EG]2 z2 |[K:bass]!mp! G,,G,G,,G, G,,G,G,,G, | %9
 G,,G,G,,G, G,,G,G,,G, | G,,G,G,,G, G,,G,G,,G, | G,,G,G,,G, G,,G,G,,G, | %12
 (G,,.G,).G,.G, (F,,.F,).F,.F, | (!>!E,,.E,).E,.E, (!>!=B,,,.=B,,).=B,,.=B,, | %14
 (!>!C,,.C,).C,.C, (!>!F,,.F,).F,.F, | (!>!E,,.E,).E,.E, D,,.D,.D,.D, | C,2 z2 F,2 z2 | %17
 G,2 z2 G,,2 z2 |[K:treble] !^!C4 .E2 .G2 | .c2 .e2 z4 | %20
[K:bass] !>![_B,,,_B,,]4 .[D,,D,]2 .[F,,F,]2 | .[B,,B,]2 .[D,D]2 z4 |!p! E,B,G,B, F,B,A,B, | %23
 G,B,E,B, D,B,B,,B, | E,B,G,B, F,B,A,B, | G,B,E,B, D,B,B,,B, | E,B,G,B, D,B,F,B, | %27
 C,B,G,B, C,B,G,B, | [C,F,=A,]8 | z2 ([B,D]2 [_CE]2) z2 | z2 ([B,D]2 [_CE]2) z2 | %31
 z2 ([B,D]2 [_CE]2) z2 | ([B,D]2 [_CE]2 [B,D]2 [_CE]2 | [B,D]2) z2 z4 | z8 | %35
[K:treble]!mp! GBGB FBGB | GBGB ABAB | FBFB FBGB | ABFB ABFB | DBDB CBDB | DBDB EBEB | GBEB GBEB | %42
 ABFB GBEB | (!>!EGEG !>!_DF_DF | C=E) [_B,=E]2 z4 |!p! [A,F]2 z2 z4 | z2 G2 A4 | [CG]2 z2 z4 | %48
[K:bass] (E,G,E,G, _D,F,_D,F, | C,=E,) [_B,,=E,]2 z4 | !^![A,,C,F,]8 | !^![F,,,F,,]8 | %52
 z2 z C,, A,,F,,C,A,, | F,C,A,F, CA,FC | z8 | z2 [A,CF]2 z2 [=A,C_G]2 | [B,E=G]2 z2 z4 | %57
[K:treble] z2!p! (G2 A4) | EBGB DBAB | _EBGB F,DA,D | G,EB,E A,ECE |!mf! _B,GEG _B,ADA | %62
[K:bass] E,B,G,B, D,B,A,B, | E,B,G,B, F,DA,D | [G,B,E]2 z2 z4 | z2 .A,2 .B,2 .B,,2 | %66
 E,2 z2 z2[K:treble] [E-G]2 | .[EA]2 z2 z2 ([B,FA]2 | .[EG]2) z2 z2[K:bass] ([E,G,]2 | %69
 .[E,A,]2) z2 z2 ([B,,F,A,]2 |!mf! .[E,G,]2) z2 z4 |!f! !^![E,,E,]4 .[G,,G,]2 .[B,,B,]2 | %72
 .[E,E]2 .[G,G]2 z4 | [G,DF]6 z2 |] %74
V:3
 x8 | x8 | x8 | x8 | x8 | x8 | x8 | x8 | x8 | x8 | x8 | x8 | x8 | x8 | x8 | x8 | x8 | x8 | x8 | %19
 x8 | x8 | x8 | x8 | x8 | x8 | x8 | x8 | x8 | x8 | x8 | x8 | x8 | x8 | x8 | x8 | x8 | x8 | %37
[K:bass] x8 | x8 |[K:treble] x8 | x8 |[K:bass] x8 | x8 |[K:treble] x8 | x8 | x8 | x6 d2 | x8 | x8 | %49
 x8 | x8 |[K:bass] x8 | x8 | x8 |[K:treble] x8 | x8 | x8 | x6 d2 | x8 | x8 | x8 | x8 | x8 | x8 | %64
 x8 | x8 | x8 | x8 | x8 | x8 | x8 | x8 | x8 | x8 |] %74
V:4
 x8 | x8 |[K:treble] x8 | x8 |[K:bass] x8 | x8 |[K:treble] x8 | x8 |[K:bass] x8 | x8 | x8 | x8 | %12
 x8 | x8 | x8 | x8 | x8 | x8 |[K:treble] x8 | x8 |[K:bass] x8 | x8 | x8 | x8 | x8 | x8 | x8 | x8 | %28
 x8 | x8 | x8 | x8 | x8 | x8 | x8 |[K:treble] x8 | x8 | x8 | x8 | x8 | x8 | x8 | x8 | x8 | x8 | %45
 x8 | x2 B,4 =B,2 | x8 |[K:bass] x8 | x8 | x8 | x8 | x8 | x8 | x8 | x8 | x8 |[K:treble] x2 B,6 | %58
 x8 | x8 | x8 | x8 |[K:bass] x8 | x8 | x8 | x8 | x6[K:treble] x2 | x8 | x6[K:bass] x2 | x8 | x8 | %71
 x8 | x8 | x8 |] %74

